X: 1
T: Flagstaff
C: David A. Kaynor 2017
R: reel
Z: 2017 John Chambers <jc:trillian.mit.edu>
M: C|
L: 1/8
K: A
% %staves (1 | 2)
% - - - - - - - - - -
V: 1 staves=2
(3efg |\
a2ed cAEA | FddF EccE | DBBA GEFG | ABcd e2fg |
a2ed cAEA | FddF EccE | DBBA GEFD | EAAG A2 :|
|: ED |\
CEAE DFBA | GBed cAAE | CEAE DFBA | GEFD E2ED |
CEAE DFBA | GBed cefg | aecA GEFD | EAAG A2 :|
% - - - - - - - - - -
V: 2
(3cde |\
"A"e2cB AECE | "D"DAAD "A"CAAC | "Bm"B,DDB, "C#m"EB,CE | "D"DFAB "E7"B2de |
"A"e2cB AECE | "D"DAAD "A"CAAC | "Bm"B,DDB, "C#m"EC"D"DB, | "E7"B,EED "A"[E2C2] :|
|: CB, |\
"A"A,CEC "Bm"B,DFD | "E7"EGBB "A"AEEC | "A"A,CEC "Bm"B,DFF | "E"EB,"Bm"DB, "E7"B,2B,B, |
"A"A,CEC "Bm"B,DFD | "E7"EGBB "A"Ac"E7"de | "A"ecAE "C#m"EC"D"DB, |"E7"B,EED "A"[E2C2] :|
% - - - - - - - - - -

%%sep 1 1 500

